X:1
T:Sean Bui
T:Over The Water To Charlie
T:The Kerry
M:12/8
L:1/8
K:G Major
GBd eBd efg dBA|GBd eBd e2 f g3|
GBd eBd efg dBd|bag agf e2 f g3:|]
bag agf efg dBd|bag agf e2 a a3|
bag agf efg dBA|GBd eBd e2 f g3:|]





